X: 39729
T: Tha Fionnlaigh Ag Innearach
R: reel
M: 4/4
K: Emajor
B2 BB cBBB|c2 cB AAAA|f2 fe d2 dd|1 c2 cc BBBB:|2 c2 cc BB f2||
f2 ff ffff|eeee ff f2|f2 e2 dd- d2|ccee ff f2:|

